X: 1
T: the Braes o' Mar
C: John Coutis of Deeside
R: strathspey
B: H&C 86
B: Skye p.63 and 64
B: Allan's p.39
B: Kerr's 2nd p.17
Z: 2009 John Chambers <jc:trillian.mit.edu>
S: handwritten MS from Sylvia Miskoe
M: C
L: 1/16
K: D
A2 \
| "D"FA3 A3B d3e "D+"f3e | "G"dB3 B3A dB3 B3A \
| "D"FA3 A3B d3e f3d | "G"gg3 "D"f3a "A7"e4 "D"d2 :|
|: g2 \
| "D"fa3 a3g f3d a3d | "Em"gb3 b3a "A7"g3e b3e \
| "D"fa3 a3g f3d a3d | "G"gb3 "D"a3f "A7"e4 "D"d2 :|
